tools/download-figma-icons/icons/outlined-large/glass-fiber.svg

<svg width="64" height="64" viewBox="0 0 64 64" fill="none" xmlns="http://www.w3.org/2000/svg">
<path fill-rule="evenodd" clip-rule="evenodd" d="M54.7542 10.0664C59.0902 9.02644 62.2351 9.00044 62.5011 9.00044C63.3291 9.00044 63.9991 9.67143 64.0001 10.4984C64.0011 11.3264 63.3301 11.9984 62.5031 12.0004C62.4331 12.0004 58.4392 12.0414 53.2772 13.6024C51.9882 16.3384 50.1132 19.6004 47.4062 23.0813C52.5832 21.8283 58.1932 21.9883 58.5512 22.0013C59.3781 22.0283 60.0271 22.7213 60.0001 23.5493C59.9741 24.3603 59.3081 25.0003 58.5012 25.0003C58.4896 25.0003 58.478 25.0003 58.466 24.9999C58.4615 24.9998 58.4568 24.9996 58.4522 24.9993C55.1352 24.8953 45.7993 25.3243 42.5613 28.5613L36.5613 34.5612C36.2683 34.8542 35.8843 35.0002 35.5003 35.0002C35.1163 35.0002 34.7323 34.8542 34.4393 34.5612C33.8543 33.9752 33.8543 33.0253 34.4393 32.4393L40.4393 26.4393C44.4293 22.4503 47.1862 18.5214 49.0782 15.1494C46.2203 16.4024 43.2443 18.1524 40.5193 20.6033L31.5614 29.5613C31.2684 29.8543 30.8844 30.0003 30.5004 30.0003C30.1164 30.0003 29.7324 29.8543 29.4394 29.5613C28.8544 28.9753 28.8544 28.0253 29.4394 27.4393L38.4393 18.4394C44.9053 11.9754 42.0903 2.02349 42.0623 1.92449C41.8293 1.1295 42.2833 0.295503 43.0763 0.0625047C43.8723 -0.173493 44.7043 0.279503 44.9393 1.0725C45.0433 1.42449 46.8182 7.64545 44.6413 13.9924C46.8362 12.7584 49.0222 11.8304 51.0782 11.1314C52.6102 7.60045 53.0132 5.30746 53.0212 5.25947C53.1552 4.44347 53.9312 3.88548 54.7422 4.02147C55.5592 4.15447 56.1132 4.92247 55.9812 5.73846C55.9542 5.90846 55.6792 7.52145 54.7542 10.0664ZM12.4544 60.6952C13.4704 61.0322 14.8544 61.2652 15.6724 60.4462L33.9802 41.9364C31.5443 41.4694 28.8483 39.9694 26.4403 37.5604C24.0813 35.2034 22.5963 32.4395 22.1373 29.9475L3.54948 48.3353C2.73748 49.1463 2.96948 50.5303 3.30648 51.5473C3.88047 53.2763 5.18746 55.2183 6.98445 57.0163C8.78244 58.8143 10.7254 60.1212 12.4544 60.6952ZM28.5613 35.4394C32.1143 38.9904 36.0192 39.8594 37.4402 38.4394C38.0252 37.8544 38.9732 37.8544 39.5582 38.4364C40.1442 39.0194 40.1482 39.9674 39.5672 40.5544L17.7994 62.5612C16.8464 63.5152 15.5864 64.0002 14.1274 64.0002C13.3114 64.0002 12.4324 63.8482 11.5094 63.5422C9.34543 62.8232 6.98445 61.2592 4.86347 59.1373C2.74148 57.0163 1.17749 54.6563 0.4585 52.4923C-0.394494 49.9213 -0.0494965 47.6893 1.43349 46.2083L23.4453 24.4335C24.0333 23.8515 24.9813 23.8565 25.5643 24.4425C26.1473 25.0285 26.1463 25.9755 25.5613 26.5605C24.3623 27.7585 24.9353 31.8135 28.5613 35.4394Z" fill="black"/>
</svg>

<svg width="64" height="64" viewBox="0 0 64 64" fill="none" xmlns="http://www.w3.org/2000/svg"><path fill-rule="evenodd" clip-rule="evenodd" d="M54.754 10.066C59.09 9.026 62.234 9 62.501 9a1.5 1.5 0 0 1 .002 3c-.07 0-4.064.041-9.226 1.602-1.289 2.736-3.164 5.998-5.87 9.48 5.176-1.254 10.786-1.094 11.144-1.08A1.5 1.5 0 0 1 58.5 25h-.035a.33.33 0 0 1-.014 0c-3.317-.105-12.653.324-15.89 3.561l-6 6a1.495 1.495 0 0 1-1.062.44 1.502 1.502 0 0 1-1.061-2.561l6-6c3.99-3.99 6.747-7.919 8.639-11.29-2.858 1.252-5.834 3.002-8.559 5.453l-8.958 8.958a1.495 1.495 0 0 1-1.06.44 1.502 1.502 0 0 1-1.061-2.561l9-9c6.465-6.465 3.65-16.417 3.622-16.516a1.5 1.5 0 0 1 2.877-.852c.104.352 1.88 6.573-.298 12.92a38.285 38.285 0 0 1 6.437-2.86c1.532-3.532 1.935-5.825 1.943-5.873a1.502 1.502 0 0 1 1.721-1.238 1.497 1.497 0 0 1 1.239 1.717c-.027.17-.302 1.783-1.227 4.328Zm-42.3 50.629c1.016.337 2.4.57 3.218-.249l18.308-18.51c-2.436-.467-5.132-1.967-7.54-4.376-2.359-2.357-3.844-5.12-4.303-7.613L3.55 48.335c-.812.811-.58 2.195-.243 3.212.574 1.73 1.881 3.671 3.678 5.47 1.798 1.797 3.741 3.104 5.47 3.678Zm16.107-25.256c3.553 3.551 7.458 4.42 8.88 3a1.5 1.5 0 0 1 2.126 2.115L17.8 62.561c-.953.954-2.213 1.439-3.672 1.439-.816 0-1.695-.152-2.618-.458-2.164-.719-4.525-2.283-6.646-4.405-2.122-2.12-3.686-4.48-4.405-6.645-.852-2.57-.507-4.803.975-6.284l22.012-21.775a1.5 1.5 0 0 1 2.116 2.127c-1.199 1.198-.626 5.253 3 8.88Z" fill="currentColor"/></svg>
